dist/flags/m/834.svg

<svg width="20" height="15" viewBox="0 0 20 15" fill="none" xmlns="http://www.w3.org/2000/svg">
<mask id="mask0" mask-type="alpha" maskUnits="userSpaceOnUse" x="0" y="0" width="20" height="15">
<rect width="20" height="15" fill="white"/>
</mask>
<g mask="url(#mask0)">
<path fill-rule="evenodd" clip-rule="evenodd" d="M0 0V15H20V0H0Z" fill="#3195F9"/>
<mask id="mask1" mask-type="alpha" maskUnits="userSpaceOnUse" x="0" y="0" width="20" height="15">
<path fill-rule="evenodd" clip-rule="evenodd" d="M0 0V15H20V0H0Z" fill="white"/>
</mask>
<g mask="url(#mask1)">
<path fill-rule="evenodd" clip-rule="evenodd" d="M0 0V15L20 0H0Z" fill="#73BE4A"/>
<path d="M-1.13855 15.8995L-0.704826 16.5493L-0.0550305 16.1156L22.6081 0.988416L23.2578 0.554691L22.8241 -0.0951043L21.4362 -2.17445L21.0025 -2.82424L20.3527 -2.39052L-2.3104 12.7367L-2.9602 13.1704L-2.52647 13.8202L-1.13855 15.8995Z" fill="#272727" stroke="#FFD018" stroke-width="1.5625"/>
</g>
</g>
</svg>

<svg width="20" height="15" fill="none" xmlns="http://www.w3.org/2000/svg">
  <mask id="a" maskUnits="userSpaceOnUse" x="0" y="0" width="20" height="15">
    <path fill="#fff" d="M0 0h20v15H0z"/>
  </mask>
  <g mask="url(#a)">
    <path fill-rule="evenodd" clip-rule="evenodd" d="M0 0v15h20V0H0z" fill="#3195F9"/>
    <mask id="b" maskUnits="userSpaceOnUse" x="0" y="0" width="20" height="15">
      <path fill-rule="evenodd" clip-rule="evenodd" d="M0 0v15h20V0H0z" fill="#fff"/>
    </mask>
    <g mask="url(#b)">
      <path fill-rule="evenodd" clip-rule="evenodd" d="M0 0v15L20 0H0z" fill="#73BE4A"/>
      <path d="M-1.139 15.9l.434.65.65-.434L22.608.988l.65-.433-.434-.65-1.388-2.08-.433-.65-.65.434L-2.31 12.737l-.65.433.434.65 1.387 2.08z" fill="#272727" stroke="#FFD018" stroke-width="1.563"/>
    </g>
  </g>
</svg>
